ServerOptions.inDevices;
ServerOptions.outDevices;

Server.default.options.inDevice_("MacBook Proの");
Server.default.options.outDevice_("MacBook Proのス");

Server.default.options.numInputBusChannels=0

Server.default.reboot

FoxDot.start
FoxDot.stop

